X: 13
T: Praeludia organi op. 5 – Allegro
C: Franciszek Walczyński
%%abc-version 2.0
%%abcx-abcm2ps-target-version 5.9.1 (29 Sep 2008)
%%abc-creator hum2abc beta
%%abcx-conversion-date 2021/10/04 07:38:42
%%abc-edited-by Andrzej Borzym
%%abc-edited-by Krzysztof Stępień
%%abcx-initial-encoding-date 2021-07-26
%%humdrum-veritas 1496624755
%%humdrum-veritas-data 1875850796
%%linebreak <none>
%%barnumbers 0
L: 1/4
M: 3/4
N: Derived from pl-kozmzk--mzk-m-159--002_walczynski-franciszek--praeludia-organi-op-5-allegro.krn
Q: "2. Allegro"
%%staves {1 2}
V: 1 clef=treble
V: 2 clef=bass
K: C
[V:1] g3- & z[ec][dB] | 
[V:2] z3 | 
[V:1] gfe & [_d_B][cA][=BG] | 
[V:2] z3 | 
[V:1] ded & [AF][_A2F2] | 
[V:2] z3 | 
[V:1] g2f & cBd- | 
[V:2] z3 | 
[V:1] e2d & dc[BF] | 
[V:2] zG,^G, | 
[V:1] c2d & [A2E2][cA-] | 
[V:2] A,=G,F, | 
[V:1] [e3B3] & A^G^F | 
[V:2] E,3 | 
[V:1] [e3B3] & G3 | 
[V:2] E3 & !fermata!E,3 | 
[V:1] F3 & D3- | 
[V:2] A,3 & D,^C,=C, | 
[V:1] G2F & DCB, | 
[V:2] G,3 & B,,A,,G,, | 
[V:1] E3 & C3 | 
[V:2] G,3 & C,B,,_B,, | 
[V:1] F2E & C2^C | 
[V:2] F,A,G, & A,,3 | 
[V:1] D2F & D2D- | 
[V:2] A,3 & F,,E,,D,, | 
[V:1] E2D & DCB, | 
[V:2] G,2F,- & G,,3 | 
[V:1] C3- & G,3- | 
[V:2] F,E,D, & C,3- | 
[V:1] !fermata!C3 & G,3 |]  
[V:2] E,3 & !fermata!C,3 |]  


